X:4
T:Island Mary (Bampton) (Bouwerie)
T:Jamaica Farewell
M:4/4
N:A substitute for Highland Mary
H:This substitution originated during the Marlboro Ale (probably 1980)
+:on tour with Newtowne Morris and Bouwerie Boys in Wyndham County.
O:England; Oxfordshire; Bampton.
P:A(AB2)4
K:G
P:A
z3 | d2 d d2 ddd | e2 f g2 gfe | d2 dd c2 cc | B2 c d2 GBd |
d2 d d2 ddd | e2 f g2 gfe | d2 dd c2 cc | B2 A G2 |]
P:B
ddd | G2 G B2 BBB | A2 A c2 ccc | F2 F A2 AAA | G2 G B2 ddd |
G2 G B2 BBB | A2 A c2 ccc | B2 BB A2 AA | G2 G G2 |]

